assets/crypto-core-logo.svg

<?xml version="1.0" encoding="UTF-8"?>
<svg width="1280px" height="640px" viewBox="0 0 1280 640" version="1.1" xmlns="http://www.w3.org/2000/svg" xmlns:xlink="http://www.w3.org/1999/xlink">
    <title>crypto-core-logo</title>
    <defs>
        <linearGradient x1="50%" y1="1.17707299e-16%" x2="50%" y2="94.5012019%" id="linearGradient-1">
            <stop stop-color="#F87128" offset="0%"></stop>
            <stop stop-color="#EA090F" offset="100%"></stop>
        </linearGradient>
        <linearGradient x1="50%" y1="1.17707299e-16%" x2="50%" y2="94.5012019%" id="linearGradient-2">
            <stop stop-color="#F87128" offset="0%"></stop>
            <stop stop-color="#EA090F" offset="100%"></stop>
        </linearGradient>
        <linearGradient x1="50%" y1="1.17707299e-16%" x2="50%" y2="94.5012019%" id="linearGradient-3">
            <stop stop-color="#F87128" offset="0%"></stop>
            <stop stop-color="#EA090F" offset="100%"></stop>
        </linearGradient>
        <linearGradient x1="50%" y1="1.17707299e-16%" x2="50%" y2="94.5012019%" id="linearGradient-4">
            <stop stop-color="#F87128" offset="0%"></stop>
            <stop stop-color="#EA090F" offset="100%"></stop>
        </linearGradient>
        <linearGradient x1="50%" y1="1.17707299e-16%" x2="50%" y2="94.5012019%" id="linearGradient-5">
            <stop stop-color="#F87128" offset="0%"></stop>
            <stop stop-color="#EA090F" offset="100%"></stop>
        </linearGradient>
        <linearGradient x1="50%" y1="1.17707299e-16%" x2="50%" y2="94.5012019%" id="linearGradient-6">
            <stop stop-color="#F87128" offset="0%"></stop>
            <stop stop-color="#EA090F" offset="100%"></stop>
        </linearGradient>
        <linearGradient x1="50%" y1="1.17707299e-16%" x2="50%" y2="94.5012019%" id="linearGradient-7">
            <stop stop-color="#F87128" offset="0%"></stop>
            <stop stop-color="#EA090F" offset="100%"></stop>
        </linearGradient>
    </defs>
    <g id="Page-1" stroke="none" stroke-width="1" fill="none" fill-rule="evenodd">
        <g id="crypto-core-logo">
            <polygon id="Path" points="0 0 1280 0 1280 640 0 640"></polygon>
            <g id="Logo" transform="translate(42.000000, 195.000000)" fill-rule="nonzero">
                <path d="M28.3820335,88.8582768 L28.3820335,102.207978 C28.3820335,116.391767 39.6507957,127.655711 53.8420801,127.655711 L77.215299,127.655711 L77.215299,114.723054 L53.8420801,114.723054 C46.7464379,114.723054 41.320579,108.882828 41.320579,102.207978 L41.320579,88.4412325 C47.5810619,85.9378959 51.7552525,79.6806252 51.7552525,73.0057748 C51.7552525,63.8275878 44.2420306,55.9016044 34.6425164,55.9016044 C25.4600466,55.9016044 17.5297804,63.4105435 17.5297804,73.0057748 C17.5297804,80.5147138 21.703971,86.7725199 28.3820335,88.8582768" id="Fill-3" fill="url(#linearGradient-1)"></path>
                <path d="M53.8420801,206.918756 L77.215299,206.918756 L77.215299,193.986635 L53.8420801,193.986635 C39.6507957,193.986635 28.3820335,205.250044 28.3820335,219.434369 L28.3820335,229.863689 C22.1210153,232.36649 17.5297804,238.624296 17.5297804,245.716191 C17.5297804,254.893842 25.0430023,262.820361 34.6425164,262.820361 C43.8249863,262.820361 51.7552525,255.311422 51.7552525,245.716191 C51.7552525,238.624296 47.5810619,232.783534 41.320579,230.280733 L41.320579,219.851413 C40.9029993,212.759518 46.7464379,206.918756 53.8420801,206.918756" id="Fill-4" fill="url(#linearGradient-2)"></path>
                <path d="M17.5297804,178.133598 C24.6254226,178.133598 30.8859055,173.962084 33.3903128,167.704278 L77.215299,167.704278 L77.215299,154.772157 L32.9727331,154.772157 C30.4688612,148.514351 24.2078429,144.342837 17.1127361,144.342837 C7.9302662,144.342837 -1.42108547e-14,151.851776 -1.42108547e-14,161.447007 C0.417044311,170.624659 7.9302662,178.133598 17.5297804,178.133598" id="Fill-5" fill="url(#linearGradient-3)"></path>
                <path d="M348.094948,102.625022 L348.094948,89.2753211 C354.35543,86.7725199 358.946665,80.5147138 358.946665,73.4228191 C358.946665,64.2451674 351.433979,56.3186488 341.834465,56.3186488 C332.651995,56.3186488 324.721729,63.8275878 324.721729,73.4228191 C324.721729,80.5147138 328.895384,86.3554756 335.156402,88.8582768 L335.156402,102.625022 C335.156402,109.716917 329.312963,115.140099 322.634901,115.140099 L299.261682,115.140099 L299.261682,128.072755 L322.634901,128.072755 C336.82565,128.072755 348.094948,116.391767 348.094948,102.625022" id="Fill-6" fill="url(#linearGradient-4)"></path>
                <path d="M335.573446,219.851413 L335.573446,230.280733 C329.312963,232.783534 325.139308,239.04134 325.139308,245.716191 C325.139308,254.893842 332.651995,262.820361 342.251509,262.820361 C351.433979,262.820361 359.364245,255.311422 359.364245,245.716191 C359.364245,238.624296 354.77301,232.36649 348.512527,229.863689 L348.512527,219.434369 C348.512527,205.250044 337.24323,193.986635 323.051945,193.986635 L299.678726,193.986635 L299.678726,206.918756 L323.051945,206.918756 C329.730008,206.918756 335.573446,212.759518 335.573446,219.851413" id="Fill-7" fill="url(#linearGradient-2)"></path>
                <path d="M358.946665,144.342837 C351.851558,144.342837 345.59054,148.514351 343.086133,154.772157 L299.678726,154.772157 L299.678726,167.704278 L343.503713,167.704278 C346.00812,173.962084 352.268603,178.133598 359.364245,178.133598 C368.546715,178.133598 376.476981,170.624659 376.476981,161.029428 C376.059401,151.851776 368.546715,144.342837 358.946665,144.342837" id="Fill-8" fill="url(#linearGradient-5)"></path>
                <path d="M108.518784,239.875964 L267.958197,239.875964 C277.557711,239.875964 285.070398,232.36649 285.070398,222.771794 L285.070398,112.220253 C285.070398,102.625022 277.557711,95.1160829 267.958197,95.1160829 L252.514709,95.1160829 L252.514709,64.2451674 C252.514709,28.7851585 223.715631,3.04040088e-23 188.238491,3.04040088e-23 C152.760815,3.04040088e-23 123.961737,28.7851585 123.961737,64.2451674 L123.961737,95.1160829 L108.518784,95.1160829 C98.91927,95.1160829 91.4060481,102.625022 91.4060481,112.220253 L91.4060481,222.771794 C91.4060481,232.36649 98.91927,239.875964 108.518784,239.875964 Z M205.350691,200.661486 C206.185851,203.164287 204.099023,206.084668 201.177036,206.084668 L175.716989,206.084668 C172.795538,206.084668 171.125754,203.581331 171.543334,200.661486 L177.803817,176.047841 C173.630162,172.710416 171.125754,167.704278 171.125754,162.281096 C171.125754,152.685865 179.056021,144.759881 188.655535,144.759881 C198.255584,144.759881 206.185851,152.685865 206.185851,162.281096 C206.185851,168.121322 203.681443,173.12746 199.507788,176.047841 L205.350691,200.661486 Z M148.58716,64.2451674 C148.58716,42.1348593 166.53452,24.6131093 188.238491,24.6131093 C210.359506,24.6131093 227.889286,42.5519036 227.889286,64.2451674 L227.889286,95.1160829 L148.58716,95.1160829 L148.58716,64.2451674 L148.58716,64.2451674 Z" id="Fill-9" fill="url(#linearGradient-6)"></path>
            </g>
            <g id="Text" transform="translate(493.000000, 287.000000)" fill="url(#linearGradient-7)" fill-rule="nonzero">
                <g id="letters" transform="translate(0.000000, 0.000000)">
                    <path d="M19.797024,58.7181256 C14.417206,53.3409846 11.727565,46.8519036 11.727565,39.2530246 C11.727565,31.6536096 14.417206,25.1645286 19.797024,19.7873876 C25.176842,14.3743766 31.6686,11.6681396 39.271762,11.6681396 C43.9342,11.6681396 48.292018,12.7795436 52.344683,15.0018176 L52.344683,2.2046065 C48.112673,0.734512 43.754855,0 39.271762,0 C28.440923,0 19.187251,3.8353087 11.512351,11.5069966 C3.83745,19.1781496 0,28.4270036 0,39.2524886 C0,50.0779746 3.83745,59.3268286 11.512351,66.9979816 C19.187786,74.6696696 28.440923,78.5055136 39.271762,78.5055136 C43.754855,78.5055136 48.112673,77.7522636 52.344683,76.2468356 L52.344683,63.5031606 C48.292018,65.6901006 43.934735,66.7833026 39.271762,66.7833026 C31.6686,66.7833026 25.176842,64.0947316 19.797024,58.7175906 L19.797024,58.7181256 Z M73.110705,33.6595986 L73.110705,12.4738546 L89.841731,12.4738546 C92.746586,12.4738546 95.239216,13.5135206 97.319619,15.5923176 C99.363618,17.6716506 100.386153,20.1808756 100.386153,23.1205296 C100.386153,26.0243146 99.363618,28.4976706 97.319619,30.5411346 C95.239216,32.6199316 92.746586,33.6595986 89.841731,33.6595986 L73.110705,33.6595986 Z M98.555762,43.5540946 C102.572557,41.8334526 105.818436,39.1448816 108.292863,35.4883826 C110.839564,31.7601456 112.112646,27.6378856 112.112646,23.1210646 C112.112646,16.9553406 109.925171,11.7034736 105.549151,7.3659986 C101.209534,2.9926543 95.973192,0.8057146 89.84066,0.8057146 L61.434,0.8057146 L61.434,77.7522636 L73.108029,77.7522636 L73.108029,45.3288086 L86.288556,45.3288086 L103.127189,77.7522636 L116.308251,77.7522636 L98.555762,43.5540946 Z M162.737757,0.8067854 L146.43716,28.4452056 L130.136563,0.8067854 L116.579143,0.8067854 L140.572842,41.5663086 L140.572842,77.7560116 L152.300942,77.7560116 L152.300942,41.5663086 L176.294642,0.8067854 L162.737222,0.8067854 L162.737757,0.8067854 Z M194.532166,33.6595986 L211.263191,33.6595986 C214.168047,33.6595986 216.660676,32.6199316 218.74108,30.5411346 C220.785079,28.4976706 221.807078,26.0243146 221.807078,23.1205296 C221.807078,20.1808756 220.785079,17.6716506 218.74108,15.5923176 C216.660676,13.5135206 214.168047,12.4738546 211.263191,12.4738546 L194.532166,12.4738546 L194.532166,33.6595986 Z M194.532166,77.7533346 L182.857602,77.7533346 L182.857602,0.8067854 L211.264262,0.8067854 C217.39733,0.8067854 222.633136,2.993725 226.973288,7.3670686 C231.348773,11.7045436 233.536784,16.9558756 233.536784,23.1221356 C233.536784,29.2519916 231.348773,34.4856566 226.973288,38.8231316 C222.633672,43.1606066 217.39733,45.3298796 211.264262,45.3298796 L194.533237,45.3298796 L194.533237,77.7533346 L194.532166,77.7533346 Z M240.260352,0.8067854 L240.260352,12.4754606 L256.560949,12.4754606 L256.560949,77.7538696 L268.289049,77.7538696 L268.289049,12.4754606 L284.589646,12.4754606 L284.589646,0.8067854 L240.259817,0.8067854 L240.260352,0.8067854 Z M302.342671,19.7868516 C296.963388,25.1639936 294.273211,31.6525386 294.273211,39.2519536 C294.273211,46.8513686 296.962853,53.3399136 302.342671,58.7170546 C307.722489,64.0941966 314.214247,66.7827666 321.817409,66.7827666 C329.420571,66.7827666 335.912864,64.0941966 341.292147,58.7170546 C346.671965,53.3399136 349.362142,46.8513686 349.362142,39.2519536 C349.362142,31.6525386 346.671965,25.1639936 341.292147,19.7868516 C335.912329,14.4097106 329.420571,11.7211406 321.817409,11.7211406 C314.214247,11.7211406 307.722489,14.4097106 302.342671,19.7868516 Z M321.817409,0.0005354 C332.648248,0.0005354 341.90192,3.835844 349.57682,11.5075316 C357.25172,19.1786846 361.089171,28.4275386 361.089171,39.2530246 C361.089171,50.0785096 357.25172,59.3273636 349.57682,66.9985166 C341.901385,74.6702046 332.648248,78.5060486 321.817409,78.5060486 C310.98657,78.5060486 301.732897,74.6702046 294.057997,66.9985166 C286.382562,59.3273636 282.545112,50.0785096 282.545112,39.2530246 C282.545112,28.4275386 286.382562,19.1786846 294.057997,11.5075316 C301.733433,3.8363794 310.98657,0.0005354 321.817409,0.0005354 Z M481.817409,0.0005354 C492.648248,0.0005354 501.90192,3.835844 509.57682,11.5075316 C517.25172,19.1786846 521.089171,28.4275386 521.089171,39.2530246 C521.089171,50.0785096 517.25172,59.3273636 509.57682,66.9985166 C501.901385,74.6702046 492.648248,78.5060486 481.817409,78.5060486 C470.98657,78.5060486 461.732897,74.6702046 454.057997,66.9985166 C446.382562,59.3273636 442.545112,50.0785096 442.545112,39.2530246 C442.545112,28.4275386 446.382562,19.1786846 454.057997,11.5075316 C461.733433,3.8363794 470.98657,0.0005354 481.817409,0.0005354 Z M423.271762,0 C427.754855,0 432.112673,0.734512 436.344683,2.2046065 L436.344683,2.2046065 L436.344683,15.0018176 C432.292018,12.7795436 427.9342,11.6681396 423.271762,11.6681396 C415.6686,11.6681396 409.176842,14.3743766 403.797024,19.7873876 C398.417206,25.1645286 395.727565,31.6536096 395.727565,39.2530246 C395.727565,46.8519036 398.417206,53.3409846 403.797024,58.7181256 L403.797024,58.7181256 C409.176842,64.0947316 415.6686,66.7833026 423.271762,66.7833026 C427.934735,66.7833026 432.292018,65.6901006 436.344683,63.5031606 L436.344683,63.5031606 L436.344683,76.2468356 C432.112673,77.7522636 427.754855,78.5055136 423.271762,78.5055136 C412.440923,78.5055136 403.187786,74.6696696 395.512351,66.9979816 C387.83745,59.3268286 384,50.0779746 384,39.2524886 C384,28.4270036 387.83745,19.1781496 395.512351,11.5069966 C403.187251,3.8353087 412.440923,0 423.271762,0 Z M481.817409,11.7211406 C474.214247,11.7211406 467.722489,14.4097106 462.342671,19.7868516 C456.963388,25.1639936 454.273211,31.6525386 454.273211,39.2519536 C454.273211,46.8513686 456.962853,53.3399136 462.342671,58.7170546 C467.722489,64.0941966 474.214247,66.7827666 481.817409,66.7827666 C489.420571,66.7827666 495.912864,64.0941966 501.292147,58.7170546 C506.671965,53.3399136 509.362142,46.8513686 509.362142,39.2519536 C509.362142,31.6525386 506.671965,25.1639936 501.292147,19.7868516 C495.912329,14.4097106 489.420571,11.7211406 481.817409,11.7211406 Z M631.953426,0.80625 L631.953426,12.4743896 L604.353556,12.4743896 L604.353556,33.3378476 L625.657606,33.3378476 L625.657606,45.0059876 L604.353556,45.0059876 L604.353556,66.0846596 L631.953426,66.0846596 L631.953426,77.7533346 L592.680596,77.7533346 L592.680596,0.80625 L631.953426,0.80625 Z M556.981994,0.8057146 C563.115062,0.8057146 568.351404,2.9926543 572.69102,7.3659986 C577.066506,11.7034736 579.254516,16.9553406 579.254516,23.1210646 C579.254516,27.6378856 577.980896,31.7601456 575.434736,35.4883826 C573.054961,39.004247 569.962434,41.6252076 566.157151,43.3512634 L565.697096,43.5540946 L583.449586,77.7522636 L570.269058,77.7522636 L553.430426,45.3288086 L540.249363,45.3288086 L540.249363,77.7522636 L528.575334,77.7522636 L528.575334,0.8057146 L556.981994,0.8057146 Z M556.983065,12.4738546 L540.25204,12.4738546 L540.25204,33.6595986 L556.983065,33.6595986 C559.887921,33.6595986 562.381085,32.6199316 564.460953,30.5411346 C566.505488,28.4976706 567.527487,26.0243146 567.527487,23.1205296 C567.527487,20.1808756 566.505488,17.6716506 564.460953,15.5923176 C562.381085,13.5135206 559.888456,12.4738546 556.983065,12.4738546 Z" id="path-8"></path>
                </g>
            </g>
        </g>
    </g>
</svg>

<svg width="1280" height="640" xmlns="http://www.w3.org/2000/svg"><defs><linearGradient x1="50%" y1="0%" x2="50%" y2="94.501%" id="a"><stop stop-color="#F87128" offset="0%"/><stop stop-color="#EA090F" offset="100%"/></linearGradient><linearGradient x1="50%" y1="0%" x2="50%" y2="94.501%" id="b"><stop stop-color="#F87128" offset="0%"/><stop stop-color="#EA090F" offset="100%"/></linearGradient><linearGradient x1="50%" y1="0%" x2="50%" y2="94.501%" id="c"><stop stop-color="#F87128" offset="0%"/><stop stop-color="#EA090F" offset="100%"/></linearGradient><linearGradient x1="50%" y1="0%" x2="50%" y2="94.501%" id="d"><stop stop-color="#F87128" offset="0%"/><stop stop-color="#EA090F" offset="100%"/></linearGradient><linearGradient x1="50%" y1="0%" x2="50%" y2="94.501%" id="e"><stop stop-color="#F87128" offset="0%"/><stop stop-color="#EA090F" offset="100%"/></linearGradient><linearGradient x1="50%" y1="0%" x2="50%" y2="94.501%" id="f"><stop stop-color="#F87128" offset="0%"/><stop stop-color="#EA090F" offset="100%"/></linearGradient><linearGradient x1="50%" y1="0%" x2="50%" y2="94.501%" id="g"><stop stop-color="#F87128" offset="0%"/><stop stop-color="#EA090F" offset="100%"/></linearGradient></defs><g fill="none" fill-rule="evenodd"><path d="M0 0L1280 0 1280 640 0 640z"/><g transform="translate(42 195)" fill-rule="nonzero"><path d="M28.382 88.858v13.35c0 14.184 11.269 25.448 25.46 25.448h23.373v-12.933H53.842c-7.096 0-12.521-5.84-12.521-12.515V88.441c6.26-2.503 10.434-8.76 10.434-15.435 0-9.178-7.513-17.104-17.112-17.104-9.183 0-17.113 7.509-17.113 17.104 0 7.509 4.174 13.767 10.852 15.852" fill="url(#a)"/><path d="M53.842 206.919h23.373v-12.932H53.842c-14.191 0-25.46 11.263-25.46 25.447v10.43c-6.261 2.502-10.852 8.76-10.852 15.852 0 9.178 7.513 17.104 17.113 17.104 9.182 0 17.112-7.509 17.112-17.104 0-7.092-4.174-12.932-10.434-15.435v-10.43c-.418-7.091 5.425-12.932 12.521-12.932" fill="url(#b)"/><path d="M17.53 178.134c7.095 0 13.356-4.172 15.86-10.43h43.825v-12.932H32.973c-2.504-6.258-8.765-10.43-15.86-10.43C7.93 144.343 0 151.853 0 161.448a17.476 17.476 0 0 0 17.53 16.687" fill="url(#c)"/><path d="M348.095 102.625v-13.35c6.26-2.502 10.852-8.76 10.852-15.852 0-9.178-7.513-17.104-17.113-17.104-9.182 0-17.112 7.509-17.112 17.104 0 7.092 4.173 12.932 10.434 15.435v13.767c0 7.092-5.843 12.515-12.521 12.515h-23.373v12.933h23.373c14.19 0 25.46-11.681 25.46-25.448" fill="url(#d)"/><path d="M335.573 219.851v10.43c-6.26 2.503-10.434 8.76-10.434 15.435 0 9.178 7.513 17.104 17.113 17.104 9.182 0 17.112-7.509 17.112-17.104 0-7.092-4.591-13.35-10.851-15.852v-10.43c0-14.184-11.27-25.447-25.461-25.447h-23.373v12.932h23.373c6.678 0 12.521 5.84 12.521 12.932" fill="url(#b)"/><path d="M358.947 144.343c-7.095 0-13.356 4.171-15.86 10.43h-43.408v12.931h43.825c2.504 6.258 8.765 10.43 15.86 10.43 9.183 0 17.113-7.51 17.113-17.105a17.477 17.477 0 0 0-17.53-16.686" fill="url(#e)"/><path d="M108.519 239.876h159.44c9.599 0 17.111-7.51 17.111-17.104V112.22c0-9.595-7.512-17.104-17.112-17.104h-15.443v-30.87c0-35.46-28.8-64.246-64.277-64.246-35.477 0-64.276 28.785-64.276 64.245v30.871h-15.443c-9.6 0-17.113 7.509-17.113 17.104v110.552c0 9.594 7.513 17.104 17.113 17.104zm96.832-39.215c.835 2.503-1.252 5.424-4.174 5.424h-25.46c-2.921 0-4.591-2.504-4.174-5.424l6.26-24.613c-4.173-3.338-6.677-8.344-6.677-13.767 0-9.595 7.93-17.521 17.53-17.521 9.6 0 17.53 7.926 17.53 17.521 0 5.84-2.505 10.846-6.678 13.767l5.843 24.613zM148.587 64.245c0-22.11 17.948-39.632 39.651-39.632 22.122 0 39.651 17.939 39.651 39.632v30.871h-79.302v-30.87z" fill="url(#f)"/></g><path d="M19.797 58.718c-5.38-5.377-8.07-11.866-8.07-19.465 0-7.6 2.69-14.088 8.07-19.466 5.38-5.413 11.872-8.119 19.475-8.119 4.662 0 9.02 1.112 13.073 3.334V2.205A39.564 39.564 0 0 0 39.272 0C28.44 0 19.187 3.835 11.512 11.507 3.837 19.178 0 28.427 0 39.252c0 10.826 3.837 20.075 11.512 27.746 7.676 7.672 16.929 11.508 27.76 11.508 4.483 0 8.84-.754 13.073-2.26V63.504c-4.053 2.187-8.41 3.28-13.073 3.28-7.603 0-14.095-2.688-19.475-8.065zM73.111 33.66V12.474h16.73c2.906 0 5.398 1.04 7.479 3.118 2.044 2.08 3.066 4.589 3.066 7.529 0 2.903-1.022 5.377-3.066 7.42-2.08 2.079-4.573 3.119-7.478 3.119H73.11zm25.445 9.894c4.017-1.72 7.262-4.41 9.737-8.066 2.547-3.728 3.82-7.85 3.82-12.367 0-6.166-2.188-11.418-6.564-15.755-4.34-4.373-9.576-6.56-15.708-6.56H61.434v76.946h11.674V45.33h13.18l16.84 32.423h13.18L98.556 43.554zM162.738.807l-16.3 27.638L130.136.807h-13.558l23.994 40.76v36.189H152.3v-36.19L176.295.806h-13.558zm31.794 32.853h16.731c2.905 0 5.398-1.04 7.478-3.119 2.044-2.043 3.066-4.517 3.066-7.42 0-2.94-1.022-5.45-3.066-7.529-2.08-2.078-4.573-3.118-7.478-3.118h-16.73V33.66zm0 44.093h-11.674V.807h28.406c6.133 0 11.37 2.187 15.71 6.56 4.375 4.338 6.563 9.589 6.563 15.755 0 6.13-2.188 11.364-6.564 15.701-4.34 4.338-9.576 6.507-15.709 6.507h-16.73v32.423h-.002zM240.26.807v11.668h16.3v65.279h11.729V12.475h16.3V.807h-44.33.001zm62.083 18.98c-5.38 5.377-8.07 11.866-8.07 19.465 0 7.6 2.69 14.088 8.07 19.465 5.38 5.377 11.871 8.066 19.474 8.066 7.604 0 14.096-2.689 19.475-8.066 5.38-5.377 8.07-11.866 8.07-19.465 0-7.6-2.69-14.088-8.07-19.465-5.38-5.377-11.871-8.066-19.475-8.066-7.603 0-14.095 2.689-19.474 8.066zM321.817 0c10.831 0 20.085 3.835 27.76 11.507 7.675 7.67 11.512 16.92 11.512 27.745 0 10.826-3.837 20.074-11.512 27.746-7.676 7.671-16.929 11.507-27.76 11.507-10.83 0-20.084-3.836-27.759-11.507-7.675-7.672-11.513-16.92-11.513-27.746 0-10.825 3.838-20.074 11.513-27.745C301.733 3.836 310.987 0 321.818 0zm160 0c10.831 0 20.085 3.835 27.76 11.507 7.675 7.67 11.512 16.92 11.512 27.745 0 10.826-3.837 20.074-11.512 27.746-7.676 7.671-16.929 11.507-27.76 11.507-10.83 0-20.084-3.836-27.759-11.507-7.675-7.672-11.513-16.92-11.513-27.746 0-10.825 3.838-20.074 11.513-27.745C461.733 3.836 470.987 0 481.818 0zM423.272 0c4.483 0 8.84.735 13.073 2.205v12.797c-4.053-2.222-8.41-3.334-13.073-3.334-7.603 0-14.095 2.706-19.475 8.12-5.38 5.377-8.07 11.866-8.07 19.465s2.69 14.088 8.07 19.465c5.38 5.377 11.872 8.065 19.475 8.065 4.663 0 9.02-1.093 13.073-3.28v12.744a38.727 38.727 0 0 1-13.073 2.259c-10.831 0-20.084-3.836-27.76-11.508C387.837 59.327 384 50.078 384 39.252c0-10.825 3.837-20.074 11.512-27.745C403.187 3.835 412.441 0 423.272 0zm58.545 11.721c-7.603 0-14.095 2.689-19.474 8.066-5.38 5.377-8.07 11.866-8.07 19.465 0 7.6 2.69 14.088 8.07 19.465 5.38 5.377 11.871 8.066 19.474 8.066 7.604 0 14.096-2.689 19.475-8.066 5.38-5.377 8.07-11.866 8.07-19.465 0-7.6-2.69-14.088-8.07-19.465-5.38-5.377-11.871-8.066-19.475-8.066zM631.953.806v11.668h-27.6v20.864h21.305v11.668h-21.304v21.079h27.6v11.668H592.68V.806h39.272zm-74.971 0c6.133 0 11.37 2.187 15.709 6.56 4.376 4.337 6.564 9.59 6.564 15.755 0 4.517-1.274 8.64-3.82 12.367-2.38 3.516-5.473 6.137-9.278 7.863l-.46.203 17.753 34.198h-13.18L553.43 45.33h-13.18v32.423h-11.675V.806h28.407zm.001 11.668h-16.731V33.66h16.731c2.905 0 5.398-1.04 7.478-3.119 2.044-2.043 3.066-4.517 3.066-7.42 0-2.94-1.022-5.45-3.066-7.529-2.08-2.078-4.573-3.118-7.478-3.118z" transform="translate(493 287)" fill="url(#g)" fill-rule="nonzero"/></g></svg>
